X:69
T:Miss McLeod's Reel
N:Allan's  #69 pg17
N:Trad/Anon
N:CONVERTED FROM NOTEWORTHY COMPOSER  (WWW.NOTEWORTHYSOFTWARE.COM) BY
N:ABC2NWC (HTTP://MEMBERS.AOL.COM/ABACUSMUSIC/), WITH
Z: (INTO NWC) VINCE BRENNAN 2002   (WWW.SOSYOURMOM.COM)
I:abc2nwc
M:2/2
L:1/8
K:G
F|:G2(BG) dGBG|B2({c}BA) BcBA|G2(BG) dGBG|ABAG AcBA|
G2(BG) dGBG|BcBA B2d2|efed Bdef|gedB AcBA:|
|:G2g2edeg|B2({c}BA) BcBA|G2g2edeg|agfe dcBA|
G2g2edeg|BcBA B2d2|efed Bdef|gedB AcBA:|
